X:1
T:Aldersgate, SM
T:Aldersgate, SM
T:George Purnell Merrick, 1875
T:Public Domain Courtesy of the Cyber Hymnal™
C:George Purnell Merrick, 1875
Z:Public Domain
Z:Courtesy of the Cyber Hymnal™
%%score ( 1 2 ) ( 3 4 )
L:1/8
Q:1/4=115
M:4/4
K:Eb
V:1 treble 
V:2 treble 
V:3 bass 
V:4 bass 
V:1
 [EG]2 | [EG]3 [EG] [FB]2 [EA]2 | [EG]6 [FB]2 | B3 z B [Ec]2 [Ed]2 | [DB]6 [DB]2 | %5
 B3 z B [Ec]2 [Fd]2 | [Ee]2 [EG]2 [EB]2 [EB]2 | B3 z A [EG]2 [DF]2 | E6 |] %9
V:2
 x2 | x8 | x8 | D2 D2 x5 | x8 | E2 E2 x5 | x8 | E2 F2 x5 | E6 |] %9
V:3
 [E,B,]2 | [E,B,]2 [E,B,]2 [E,D]2 [E,C]2 | [E,B,]6 [D,B,]2 | B,3 z B, [_G,=A,]2 [F,A,]2 | %4
 [B,,B,]6 [A,B,]2 | [G,B,]2 [E,G,]2 A,2 [F,A,]2 x | [C,G,]2 [C,C]2 [G,B,]2 [G,_D]2 | %7
 [A,C]2 [F,C]2 B,2 [B,,A,]2 x | [E,G,]6 |] %9
V:4
 x2 | x8 | x8 | _G,2 G,2 x5 | x8 | x4 A,2 x3 | x8 | x4 B,2 x3 | x6 |] %9

